icons/ansi-b-portrait-16.svg

<?xml version="1.0" encoding="UTF-8"?><svg id="icons" xmlns="http://www.w3.org/2000/svg" viewBox="0 0 16 16"><defs><style>.cls-1{fill:none;}.cls-1,.cls-2,.cls-3{stroke-width:0px;}.cls-2{opacity:.25;}</style></defs><rect class="cls-1" width="16" height="16"/><path class="cls-3" d="M12.40039,0H3v5h1V1h7v4h4v10H4v-1h-1v2h13V3.59961l-3.59961-3.59961ZM15,4h-3V1h.31049l2.68951,2.68951v.31049ZM6.51874,9.28754c.29596-.34875.48126-.79431.48126-1.28754,0-1.10461-.89545-2-2-2h-3v7h3.5c1.10455,0,2-.89545,2-2,0-.73083-.39612-1.36353-.98126-1.71246ZM3,7h2c.55176,0,1,.44824,1,1s-.44824,1-1,1h-2v-2ZM5.5,12h-2.5v-2h2.5c.55176,0,1,.44824,1,1s-.44824,1-1,1Z"/><path class="cls-2" d="M11,3h-7V1h7v2Z"/></svg>

<svg xmlns="http://www.w3.org/2000/svg" viewBox="0 0 16 16"><path stroke-width="0" fill="none" d="M0 0h16v16H0z"/><path d="M12.4 0H3v5h1V1h7v4h4v10H4v-1H3v2h13V3.6L12.4 0zM15 4h-3V1h.31L15 3.69V4zM6.519 9.288C6.815 8.938 7 8.493 7 8a2 2 0 0 0-2-2H2v7h3.5a2 2 0 0 0 2-2c0-.73-.396-1.364-.981-1.712zM3 7h2a1 1 0 0 1 0 2H3V7zm2.5 5H3v-2h2.5a1 1 0 0 1 0 2z" stroke-width="0"/><path d="M11 3H4V1h7v2z" opacity=".25" stroke-width="0"/></svg>
